symbols-de/shields/motorway_10x3.svg

<?xml version="1.0" encoding="UTF-8" standalone="no"?>
<svg
   xmlns:dc="http://purl.org/dc/elements/1.1/"
   xmlns:cc="http://creativecommons.org/ns#"
   xmlns:rdf="http://www.w3.org/1999/02/22-rdf-syntax-ns#"
   xmlns:svg="http://www.w3.org/2000/svg"
   xmlns="http://www.w3.org/2000/svg"
   xmlns:sodipodi="http://sodipodi.sourceforge.net/DTD/sodipodi-0.dtd"
   xmlns:inkscape="http://www.inkscape.org/namespaces/inkscape"
   width="100%"
   height="100%"
   viewBox="0 0 68.0 33.0"
   id="svg2"
   version="1.1"
   inkscape:version="0.91 r13725"
   sodipodi:docname="autobahn_10x3.svg">
  <metadata
     id="metadata9">
    <rdf:RDF>
      <cc:Work
         rdf:about="">
        <dc:format>image/svg+xml</dc:format>
        <dc:type
           rdf:resource="http://purl.org/dc/dcmitype/StillImage" />
        <dc:title></dc:title>
      </cc:Work>
    </rdf:RDF>
  </metadata>
  <defs
     id="defs7" />
  <sodipodi:namedview
     pagecolor="#ffffff"
     bordercolor="#666666"
     borderopacity="1"
     objecttolerance="10"
     gridtolerance="10"
     guidetolerance="10"
     inkscape:pageopacity="0"
     inkscape:pageshadow="2"
     inkscape:window-width="1050"
     inkscape:window-height="797"
     id="namedview5"
     showgrid="false"
     inkscape:zoom="5.1911765"
     inkscape:cx="34"
     inkscape:cy="16.5"
     inkscape:window-x="460"
     inkscape:window-y="0"
     inkscape:window-maximized="0"
     inkscape:current-layer="svg2" />
  <path
     style="fill:#365eaf;fill-opacity:1;stroke:#0528a2;stroke-width:0.99999994;stroke-miterlimit:4;stroke-dasharray:none;stroke-opacity:1"
     d="m 34.000001,0.49999923 c -0.480285,0 -0.719727,0.00326 -0.719727,0.011719 L 1.582107,2.2812494 C 0.86167697,2.3660964 0.49999997,2.4943619 0.49999997,2.6640619 l 0,27.6718751 c 0,0.1697 0.361677,0.297962 1.08210703,0.382812 l 31.698167,1.769531 c 0,0.0085 0.239447,0.01172 0.719727,0.01172 0.480286,0 0.719726,-0.0032 0.719726,-0.01172 l 31.698168,-1.769531 c 0.72043,-0.08485 0.92417,-0.224567 1.08211,-0.382812 0,-14.860404 0,-14.542796 0,-27.6718751 0,-0.1697 -0.36168,-0.2979652 -1.08211,-0.3828125 L 34.719727,0.51171793 c 0,-0.00846 -0.239447,-0.011719 -0.719726,-0.011719 z"
     id="path6"
     inkscape:connector-curvature="0"
     sodipodi:nodetypes="sccccccsccccccs" />
</svg>

<?xml version="1.0" encoding="UTF-8"?>
<svg xmlns="http://www.w3.org/2000/svg" xmlns:xlink="http://www.w3.org/1999/xlink" width="71pt" height="42pt" viewBox="0 0 71 42" version="1.1">
<g id="surface1">
<path style="fill-rule:nonzero;fill:rgb(21.176471%,36.862745%,68.627451%);fill-opacity:1;stroke-width:1;stroke-linecap:butt;stroke-linejoin:miter;stroke:rgb(1.960784%,15.686275%,63.529412%);stroke-opacity:1;stroke-miterlimit:4;" d="M 34 0.500279 C 33.521127 0.500279 33.28169 0.503348 33.28169 0.512556 L 1.582526 2.280413 C 0.860475 2.36635 0.50132 2.495257 0.50132 2.664062 L 0.50132 30.335938 C 0.50132 30.504743 0.860475 30.63365 1.582526 30.719587 L 33.28169 32.487444 C 33.28169 32.496652 33.521127 32.499721 34 32.499721 C 34.478873 32.499721 34.71831 32.496652 34.71831 32.487444 L 66.417474 30.719587 C 67.139525 30.63365 67.341549 30.495536 67.49868 30.335938 C 67.49868 15.474888 67.49868 15.794085 67.49868 2.664062 C 67.49868 2.495257 67.139525 2.36635 66.417474 2.280413 L 34.71831 0.512556 C 34.71831 0.503348 34.478873 0.500279 34 0.500279 Z M 34 0.500279 " transform="matrix(1.044118,0,0,1.272727,0,0)"/>
</g>
</svg>
